Numix/16x16/categories/applications-geology.svg

<?xml version="1.0" encoding="UTF-8" standalone="no"?>
<svg
   xmlns:dc="http://purl.org/dc/elements/1.1/"
   xmlns:cc="http://creativecommons.org/ns#"
   xmlns:rdf="http://www.w3.org/1999/02/22-rdf-syntax-ns#"
   xmlns:svg="http://www.w3.org/2000/svg"
   xmlns="http://www.w3.org/2000/svg"
   xmlns:sodipodi="http://sodipodi.sourceforge.net/DTD/sodipodi-0.dtd"
   xmlns:inkscape="http://www.inkscape.org/namespaces/inkscape"
   width="16"
   height="16"
   viewBox="0 0 16 16"
   id="svg2"
   version="1.1"
   inkscape:version="0.91 r"
   sodipodi:docname="applications-geology.svg">
  <metadata
     id="metadata22">
    <rdf:RDF>
      <cc:Work
         rdf:about="">
        <dc:format>image/svg+xml</dc:format>
        <dc:type
           rdf:resource="http://purl.org/dc/dcmitype/StillImage" />
        <dc:title></dc:title>
      </cc:Work>
    </rdf:RDF>
  </metadata>
  <defs
     id="defs20" />
  <sodipodi:namedview
     pagecolor="#ffffff"
     bordercolor="#666666"
     borderopacity="1"
     objecttolerance="10"
     gridtolerance="10"
     guidetolerance="10"
     inkscape:pageopacity="0"
     inkscape:pageshadow="2"
     inkscape:window-width="1920"
     inkscape:window-height="1056"
     id="namedview18"
     showgrid="true"
     inkscape:zoom="41.7193"
     inkscape:cx="7.7606668"
     inkscape:cy="8.505581"
     inkscape:window-x="0"
     inkscape:window-y="24"
     inkscape:window-maximized="1"
     inkscape:current-layer="svg2">
    <inkscape:grid
       type="xygrid"
       id="grid4150" />
  </sodipodi:namedview>
  <g
     id="g6"
     style="fill:#a47854;fill-rule:evenodd;stroke:#a47854;stroke-width:2.26017332;stroke-linejoin:round"
     transform="matrix(0.46770647,0,0,0.46207897,0.60441115,0.68613135)">
    <path
       inkscape:connector-curvature="0"
       id="path8"
       transform="scale(0.1237,0.1237)"
       d="m 30.725798,148.1975 c 38.27304,-0.53683 53.778042,-5.24201 65.525213,-8.87353 11.778749,-3.6631 29.210039,-11.49454 29.210039,-11.49454 l 44.02031,89.84059 -138.755562,0 z"
       style="stroke-width:12.24561977" />
    <path
       inkscape:connector-curvature="0"
       id="path10"
       transform="scale(0.1237,0.1237)"
       d="m 157.29209,182.08114 c 0,0 -19.76809,10.95771 -25.45221,13.73661 -7.86302,3.82099 -21.41016,14.11556 -45.157129,21.47333 l -55.641169,0 0,-43.894 c 32.146827,-1.01051 55.293806,-1.98944 69.693568,-8.02092 14.36817,-6.03148 41.46245,-20.08387 41.46245,-20.08387 z"
       style="stroke-width:13.83904171" />
    <path
       inkscape:connector-curvature="0"
       id="path12"
       transform="scale(0.1237,0.1237)"
       d="m 132.53461,142.1976 c 20.84175,-20.90491 14.7787,-27.15743 35.93624,-28.98898 21.15753,-1.79997 56.80957,14.08397 56.80957,14.08397 l 0,90.31427 -55.79906,0 z"
       style="stroke-width:12.24561977" />
    <path
       inkscape:connector-curvature="0"
       id="path14"
       transform="scale(0.1237,0.1237)"
       d="m 224.61727,184.10216 c 0,0 -4.98939,-2.62101 -11.46297,-5.36833 -6.37884,-2.65259 -11.49454,-3.97888 -23.08382,-0.66315 -7.83144,2.24207 -14.36818,7.23146 -27.72585,17.2734 l -17.1155,-43.04138 c 13.29452,-11.96822 23.77855,-20.39966 37.13622,-21.41017 13.38925,-1.01051 24.41011,1.35787 31.13632,4.67361 6.69462,3.34731 10.45245,5.68411 10.45245,5.68411 z"
       style="stroke-width:13.83904171" />
  </g>
  <path
     inkscape:connector-curvature="0"
     id="path16"
     d="m 2.6357132,2.5000024 10.7285748,0 c 0.07419,0 0.135712,0.061523 0.135712,0.1357131 l 0,10.7285695 c 0,0.07419 -0.06153,0.135713 -0.135712,0.135713 l -10.7285748,0 C 2.5615232,13.499998 2.5,13.438478 2.5,13.364285 l 0,-10.7285695 c 0,-0.07419 0.061523,-0.1357131 0.1357132,-0.1357131 z"
     style="fill:none;stroke:#a47854;stroke-width:1;stroke-linecap:round;stroke-miterlimit:4;stroke-dasharray:none" />
</svg>

<svg width="16" xmlns="http://www.w3.org/2000/svg" height="16" viewBox="0 0 16 16" xmlns:xlink="http://www.w3.org/1999/xlink">
<g style="stroke:#a47854">
<g style="fill:#a47854;fill-rule:evenodd;stroke-linejoin:round">
<path style="stroke-width:5.418" d="M 30.69422 148.165926 C 69.030416 147.660671 84.50384 142.923909 96.251011 139.323969 C 107.998181 135.660873 125.492623 127.829426 125.492623 127.829426 L 169.449778 217.63844 L 30.69422 217.63844 Z " transform="scale(.06185)"/>
<path style="stroke-width:6.123" d="M 157.260509 182.081144 C 157.260509 182.081144 137.555578 193.070432 131.871463 195.786176 C 123.976859 199.638743 110.398141 209.933306 86.714329 217.259499 L 31.073161 217.259499 L 31.073161 173.365501 C 63.156831 172.418149 86.335388 171.407639 100.735146 165.344584 C 115.134903 159.344685 142.229184 145.260711 142.229184 145.260711 Z " transform="scale(.06185)"/>
<path style="stroke-width:5.418" d="M 132.503032 142.166027 C 153.344786 121.261116 147.344887 115.008589 168.502425 113.240198 C 189.659964 111.40865 225.280416 127.261015 225.280416 127.261015 L 225.280416 217.575283 L 169.449778 217.575283 Z " transform="scale(.06185)"/>
<path style="stroke-width:6.123" d="M 224.585691 184.102162 C 224.585691 184.102162 219.659458 181.449576 213.154305 178.733832 C 206.775465 176.081245 201.659762 174.754951 190.102061 178.102264 C 182.207458 180.312753 175.702304 185.302142 162.313056 195.344078 L 145.260711 152.334276 C 158.523646 140.334479 169.00768 131.871463 182.396928 130.924111 C 195.786176 129.913601 206.775465 132.250404 213.470089 135.597716 C 220.164713 138.945028 223.954123 141.281831 223.954123 141.281831 Z " transform="scale(.06185)"/>
</g>
<path style="fill:none;stroke-linecap:round;stroke-width:8.073" d="M 34.420473 32.020513 L 221.61732 32.020513 C 222.943614 32.020513 223.954123 33.094179 223.954123 34.420473 L 223.954123 221.61732 C 223.954123 222.943614 222.943614 223.954123 221.61732 223.954123 L 34.420473 223.954123 C 33.094179 223.954123 32.020513 222.943614 32.020513 221.61732 L 32.020513 34.420473 C 32.020513 33.094179 33.094179 32.020513 34.420473 32.020513 Z " transform="scale(.06185)"/>
</g>
</svg>
